X: 36967
T: Shuffle
R: reel
M: 4/4
K: Dmajor
|:D2(3ddd cAdE|Dd (3ddd cAGE|D2(3ddd cAdA|FGAF GEEE|
D2(3ddd cAdE|Dd (3ddd cAGE|D2(3ddd cAdA|FGEF D2z2:|
|:GGGA GFEG|FDDD FDFA|dedc dcAG|FGAF GEFD|
GGGA GFEG|FDDD FDFA|dedc dcAG|1 FAGE D2z2:|2 FGAG FAEF||

